assets/companies/light/nasa.svg

<svg width="65" height="18" viewBox="0 0 65 18" fill="none" xmlns="http://www.w3.org/2000/svg">
<path fill-rule="evenodd" clip-rule="evenodd" d="M34.3693 17.5581H43.2329C44.5574 17.5581 45.6443 17.0146 46.5271 15.9274C47.3761 14.8747 47.8177 13.6183 47.8177 12.1923C47.8177 9.30556 44.1161 7.26781 42.6891 7.26781H37.833C37.4594 7.26781 37.1532 7.09794 36.916 6.82656C36.6781 6.52066 36.5424 6.18126 36.5424 5.77351C36.5424 5.29808 36.6781 4.89067 36.916 4.55093C37.1877 4.21153 37.5271 4.00783 37.9349 4.00783H47.0364V0.373576H37.7646C36.1005 0.373576 34.8095 0.883187 33.8925 1.86788C33.078 2.7849 32.6699 4.00748 32.6699 5.46795C32.6699 6.89424 33.078 8.151 33.8925 9.16918C34.8095 10.2899 35.8968 10.8679 37.2212 10.8679H42.8252C43.1642 10.8679 43.4363 10.9697 43.6397 11.2408C43.8775 11.5125 43.9794 11.8522 43.9794 12.2261C43.9794 12.6677 43.8095 13.0752 43.5378 13.4149C43.2322 13.7205 42.8925 13.8903 42.4516 13.8903H33.4858L33.3501 13.6524L29.9879 2.85292L29.818 2.51318C29.0029 0.849007 27.6446 0.0341834 25.7767 0.0341834C24.7579 0.0341834 23.8408 0.271723 23.0257 0.781333C22.1767 1.2906 21.6332 2.03775 21.3277 2.98895L16.8106 17.5239L20.9199 17.5584L25.0631 4.61929C25.1649 4.21153 25.4028 4.00783 25.7084 4.00783C25.8782 4.00783 26.0139 4.0755 26.1158 4.1777C26.2176 4.31339 26.2856 4.44942 26.3195 4.61929L30.4965 17.5584L34.3693 17.5581ZM3.80377 5.67165V17.5239H0V4.38106C0 2.68305 0.407757 1.4943 1.2906 0.781333C1.96973 0.271723 2.98861 0 4.41489 0C5.56946 0 6.55449 0.339741 7.43733 0.98504C8.32017 1.63034 8.89746 2.51318 9.20336 3.60007L11.6824 12.328L12.0901 13.5167C12.1239 13.7543 12.26 13.9242 12.3957 14.0595C12.5655 14.1959 12.7351 14.2639 12.9391 14.1959C13.2789 14.162 13.4487 13.958 13.4487 13.6524V0.407757H17.3544V13.4826C17.3544 14.943 17.015 16.0303 16.3016 16.8113C15.6225 17.5922 14.6036 18 13.245 18C12.0563 18 11.0712 17.7621 10.2903 17.3547C9.33939 16.8793 8.72793 16.1321 8.45621 15.1467L5.60364 5.19623L5.39993 4.55093C5.33191 4.31338 5.19623 4.14352 5.02636 3.97365C4.85649 3.83761 4.65278 3.80378 4.44907 3.83761C4.24537 3.87179 4.10968 3.97365 3.97364 4.17735C3.86198 4.3616 3.80321 4.57303 3.80377 4.78847V5.67165ZM64.5948 17.5581L60.1799 2.85292L60.01 2.51318C59.1948 0.849007 57.8366 0.0341834 55.9687 0.0341834C54.9498 0.0341834 54.0328 0.271723 53.218 0.781333C52.3683 1.2906 51.8255 2.03775 51.5193 2.98895L47.0025 17.5239L51.1119 17.5584L55.255 4.61929C55.3569 4.21153 55.5948 4.00783 55.9003 4.00783C56.0702 4.00783 56.2059 4.0755 56.3077 4.1777C56.4103 4.31339 56.4776 4.44942 56.5121 4.61929L60.6891 17.5584L64.5948 17.5581Z" fill="#8B8D98"/>
</svg>

<svg xmlns="http://www.w3.org/2000/svg" width="65" height="18" fill="none" viewBox="0 0 65 18"><path fill="#8B8D98" fill-rule="evenodd" d="M34.37 17.558h8.863c1.324 0 2.411-.543 3.294-1.63.85-1.053 1.29-2.31 1.29-3.736 0-2.886-3.7-4.924-5.128-4.924h-4.856c-.374 0-.68-.17-.917-.441a1.66 1.66 0 0 1-.374-1.053c0-.476.136-.883.374-1.223.272-.34.611-.543 1.019-.543h9.101V.374h-9.271c-1.665 0-2.956.51-3.873 1.494-.814.917-1.222 2.14-1.222 3.6 0 1.426.408 2.683 1.222 3.701.917 1.12 2.005 1.699 3.33 1.699h5.603c.34 0 .611.102.815.373.237.271.34.611.34.985 0 .442-.17.85-.442 1.189-.306.306-.645.475-1.086.475h-8.966l-.136-.238-3.362-10.8-.17-.339C29.003.85 27.645.034 25.777.034c-1.02 0-1.936.238-2.751.747-.85.51-1.393 1.257-1.698 2.208L16.81 17.524l4.109.034L25.063 4.62c.102-.407.34-.611.645-.611a.56.56 0 0 1 .408.17c.102.135.17.271.204.441l4.177 12.94zM3.803 5.672v11.852H0V4.38C0 2.682.408 1.493 1.29.78 1.97.271 2.99 0 4.416 0c1.154 0 2.14.34 3.022.985.883.645 1.46 1.528 1.766 2.615l2.48 8.728.407 1.189c.034.237.17.407.306.543.17.136.34.204.543.136.34-.034.51-.238.51-.544V.408h3.905v13.075c0 1.46-.339 2.547-1.052 3.328-.68.781-1.698 1.189-3.057 1.189-1.189 0-2.174-.238-2.955-.645-.95-.476-1.562-1.223-1.834-2.208l-2.852-9.95L5.4 4.55c-.068-.238-.204-.407-.374-.577-.17-.136-.373-.17-.577-.136s-.34.136-.475.34c-.112.184-.17.395-.17.61zm60.79 11.886L60.18 2.853l-.17-.34C59.195.85 57.837.034 55.969.034c-1.02 0-1.936.238-2.751.747-.85.51-1.393 1.257-1.699 2.208l-4.517 14.535 4.11.034L55.255 4.62c.102-.407.34-.611.645-.611a.56.56 0 0 1 .408.17c.102.135.17.271.204.441l4.177 12.94z" clip-rule="evenodd"/></svg>
